icon-themes/sifr_svg/wizards/res/formarrangetable_42.svg

<svg viewBox="0 0 42 42" xmlns="http://www.w3.org/2000/svg"><g fill="#555753"><path d="m2 7v8 24h9v-24h28v-8zm2 2h5v4h-5zm7 0h5v4h-5zm7 0h5v4h-5zm7 0h5v4h-5zm7 0h5v4h-5zm-28 6h5v4h-5zm0 6h5v4h-5zm0 6h5v4h-5zm0 6h5v4h-5z"/><path d="m16 15v4h-5v2h5v4h-5v2h5v4h-5v2h5v4h-5v2h28v-2-22h-2v4h-5v-4h-2v4h-5v-4h-2v4h-5v-4zm2 6h5v4h-5zm7 0h5v4h-5zm7 0h5v4h-5zm-14 6h5v4h-5zm7 0h5v4h-5zm7 0h5v4h-5zm-14 6h5v4h-5zm7 0h5v4h-5zm7 0h5v4h-5z" opacity=".35"/></g></svg>

<svg xmlns="http://www.w3.org/2000/svg" viewBox="0 0 42 42">
  <path
     style="fill:#555753"
     d="M 2 7 L 2 15 L 2 39 L 11 39 L 11 15 L 39 15 L 39 7 L 2 7 z M 4 9 L 9 9 L 9 13 L 4 13 L 4 9 z M 11 9 L 16 9 L 16 13 L 11 13 L 11 9 z M 18 9 L 23 9 L 23 13 L 18 13 L 18 9 z M 25 9 L 30 9 L 30 13 L 25 13 L 25 9 z M 32 9 L 37 9 L 37 13 L 32 13 L 32 9 z M 4 15 L 9 15 L 9 19 L 4 19 L 4 15 z M 4 21 L 9 21 L 9 25 L 4 25 L 4 21 z M 4 27 L 9 27 L 9 31 L 4 31 L 4 27 z M 4 33 L 9 33 L 9 37 L 4 37 L 4 33 z "
     />
  <path
     style="opacity:0.35;fill:#555753"
     d="M 16 15 L 16 19 L 11 19 L 11 21 L 16 21 L 16 25 L 11 25 L 11 27 L 16 27 L 16 31 L 11 31 L 11 33 L 16 33 L 16 37 L 11 37 L 11 39 L 39 39 L 39 37 L 39 15 L 37 15 L 37 19 L 32 19 L 32 15 L 30 15 L 30 19 L 25 19 L 25 15 L 23 15 L 23 19 L 18 19 L 18 15 L 16 15 z M 18 21 L 23 21 L 23 25 L 18 25 L 18 21 z M 25 21 L 30 21 L 30 25 L 25 25 L 25 21 z M 32 21 L 37 21 L 37 25 L 32 25 L 32 21 z M 18 27 L 23 27 L 23 31 L 18 31 L 18 27 z M 25 27 L 30 27 L 30 31 L 25 31 L 25 27 z M 32 27 L 37 27 L 37 31 L 32 31 L 32 27 z M 18 33 L 23 33 L 23 37 L 18 37 L 18 33 z M 25 33 L 30 33 L 30 37 L 25 37 L 25 33 z M 32 33 L 37 33 L 37 37 L 32 37 L 32 33 z "
     />
</svg>
